X:1
T:Ah Vous Dirai-Je Maman
T:Ah Vous Dirai-Je Maman
T:Thirteen Scherzi For Two Guitars
T:Wolfgang Amadeus Mozart  Ed.: J. J. Olson
T:by Mutopia-2018/12/07-2236 - Public Domain
T:by Mutopia-2018/12/07-2236 - Public Domain
T:by Mutopia-2018/12/07-2236 - Public Domain
T:by Mutopia-2018/12/07-2236 - Public Domain
T:by Mutopia-2018/12/07-2236 - Public Domain
T:by Mutopia-2018/12/07-2236 - Public Domain
T:by Mutopia-2018/12/07-2236 - Public Domain
T:by Mutopia-2018/12/07-2236 - Public Domain
T:by Mutopia-2018/12/07-2236 - Public Domain
T:by Mutopia-2018/12/07-2236 - Public Domain
T:by Mutopia-2018/12/07-2236 - Public Domain
C:Wolfgang Amadeus Mozart  Ed.: J. J. Olson
Z:by Mutopia-2018/12/07-2236 - Public Domain
%%score [ ( 1 2 3 ) ( 4 5 ) ]
L:1/8
Q:1/4=60
M:2/4
K:C
V:1 treble transpose=-12 nm="Guitar I"
V:2 treble transpose=-12 
V:3 treble transpose=-12 
V:4 treble transpose=-12 nm="Guitar II"
V:5 treble transpose=-12 
V:1
"^1. Preludio (Var. I)""^VIII"!mf! d/c/B/c/ B/c/B/c/ | a/g/^f/g/ f/g/f/g/ | ^g/a/c'/b/ d'/c'/b/a/ | %3
w: |||
w: |||
w: |||
 (!4!a/!1!=g/)"^VIII"e'/d'/ c'/b/a/g/ | (!1!g/"^VI"!1!f/)d'/c'/ b/a/g/f/ | %5
w: ||
w: ||
w: ||
 (!1!f/"^V"!1!e/)c'/b/ a/g/f/e/ |"^b_III" da g!4!B |"^I" c/G/E/G/ C2!fine! |] %8
w: |||
w: |||
w: |||
"^VII"!p! (a/g/^f/g/ f/g/a/g/) | (!2!g/"^V"!2!=f/e/f/ e/f/g/f/) | (!2!f/"^IV"!2!e/^d/e/ d/e/f/e/) | %11
w: |||
w: |||
w: |||
 (!2!e/"^II"!2!=d/^c/d/ c/d/e/d/) |"^VII" a/g/^f/!1!g/"^b_VIII" e'/c'/a/g/ | %13
w: ||
w: ||
w: ||
"^V" !4!g/=f/e/!1!f/"^VII" d'/!2!b/g/f/ |"^VI" !3!f/e/^d/!1!e/"^V" !4!c'/g/f/e/ | %15
w: ||
w: ||
w: ||
"^b_III" g>e d2!D.C.! |][M:2/4]"^2. Grazioso (Var. VII)"[Q:1/4=60]!f!"^VII" CD/E/ F/G/A/B/ | %17
w: ||
w: ||
w: ||
 c/d/e/f/ g/a/b/c'/ | b/a/^g/a/ d'/c'/b/a/ | a/=g/^f/g/ z/ !1!g/"^VIII"e'/g/ | %20
w: |||
w: |||
w: |||
 z/ !3!f/e'/f/ z/ f/!4!d'/f/ | z/ !3!e/d'/e/ z/ e/!2!c'/e/ | z/ !1!d/c'/d/ z/ d/!2!b/d/ | %23
w: |||
w: |||
w: |||
 !1!!4![cc']2 z2!fine! |]!p!"^b_VIII" g/c'/e'/d'/ c'/b/a/g/ |"^VII"!>(! f/e/d/c/ B/A/G/F/!>)! | %26
w: |||
w: |||
w: |||
 E!<(!.e .f.^f!<)! |!>(! g>e d2!>)! |!mf!"^b_VIII" g/c'/e'/d'/ c'/b/a/g/ | %29
w: |||
w: |||
w: |||
"^VII"!>(! =f/e/d/c/ B/A/G/F/!>)! | E.e .f.^f |!>(! g>e d!>)! z!D.C.! |] %32
w: |||
w: |||
w: |||
[K:Eb][M:2/4]"^3. Fuga Minore (Var. VIII)"[Q:1/4=68]"^III" cd ef | g2 g2 | (a2 f2 | g2 e2 | f2 d2 | %37
w: |||||
w: |||||
w: |||||
 e2 c2 | d2 =B2 | !4!c4) || z g ag |"^V" !4!^f2"^IV" !4!=f2 |"^b_V" =e2"^b_IV" _e2 | %43
w: ||||||
w: ||||||
w: ||||||
 ^F2"^b_III" d2 | =E2"^b_I" c2 | E2 =B2 |"^III" cc de | gf .e.d || .c.d .e.f | %49
w: ||||||
w: ||||||
w: ||||||
"^II" (^fg/) z/ (fg/) z/ |"^III" (!2!a2 f2 | g2 e2 | f2 d2 | e2 c2 | d2 =B2 | c4) | %56
w: |||||||
w: |||||||
w: |||||||
[K:C][M:2/4]"^4. Arioso (Var. III)"[Q:1/4=72]"^b_V"!f! (3CEG (3ceg | (3c'gf (3Tedc | %58
w: ||
w: ||
w: ||
 (3!4!a"^VII"^ga (3c'ba | (3(a^f)"^b_VIII".!1!=g (3.g.c'.e' | (3(!4!e'!1!f).f (3f!2!bd' | %61
w: ||* glis. * * * *|
w: |||
w: |||
 (3(!4!d'"^b_V"!1!e).e (3eac' | (3(!4!c'"^III"!1!d).a (3(!4!a!1!g).!3!B | %63
w: glis. * * * * *|glis. * * * * *|
w: ||
w: ||
"^II" (3(!4!c!0!G).E C2!fine! |]"^VII" (3(g^f).g"^b_VIII" (3e'c'g | %65
w: ||
w: ||
w: ||
"^V" (3(!4!g!1!e).!1!=f"^VI" (3d'!2!bf |"^IV" (3(!3!f^d)"^V".!1!e (3!4!c'!4!ge | %67
w: ||
w: ||
w: ||
"^II" (3(!4!e^c)"^III".!1!d (3fdB |"^VII" (3(g^f).g"^VIII" (3e'!2!^c'g | %69
w: ||
w: ||
w: ||
"^V" (3(ge)"^VI".=f (3d'bf |"^IV" (3(f^d)e (3c'a_g | g>e d2!D.C.! |] %72
w: |||
w: |||
w: |||
[M:2/4]"^5. Andante (Var. II)"[Q:1/4=60]!mf! !4!c'2 c'2 | !4!g4 | !3!a4 |"^III" !1!g4 |"^I" f4 | %77
w: |||||
w: |||||
w: |||||
 !0!e4 | !4!d2 !0!B2 | [Gc]2 z2 ||"^(I)"!p! c2 g2 | f2 B2 | c>d e>f | B2 d2 | g2 c2 | f2 B2 | %86
w: |||||||||
w: |||||||||
w: |||||||||
 e>d e>f | (e2 d2) ||!f!"^I" [Gc]2 c3/2B/4c/4 | !4!g2"^b_V" !1!c2 | a2 a2 |"^VIII" !2!g2 !2!g2 | %92
w: ||||||
w: ||||||
w: ||||||
"^VII" !2!^f2"^VI" !2!=f2 |"^b_V" !1!e2 !1!e2 |"^III" !1!d2"^I" !0!B2 | [EGc]4 |] %96
w: ||||
w: ||||
w: ||||
[M:4/4]"^6. Adagio (Var. XI)"[Q:1/4=64]"^b_V"!p! c3 G e3 c | !4!g2 g4 g2 | %98
w: ||
w: ||
w: ||
 [cga]2 !2![cfa]4 !4![cfa]2 |"^III" [cfg]2 [ceg]4"^VIII" [ceg]2 | g!3!f f2 z"^VII" !4!d'!1!b!4!g | %101
w: |||
w: |||
w: |||
"^IV" !3!f>!1!^d !3!e2 z"^III" !1!g!0!e"^I"!1!c | B>!fermata!A{/g} (fe/d/ c2) B2 | %103
w: ||
w: ||
w: ||
 ([FGd]4 [EGc]2) z2!fine! |]"^VII"!p! (g3 a/b/) .c'.b.a.g | gf/ z/ ed/ z/ c2 B z | c3 d e3 f | %107
w: ||||
w: ||||
w: ||||
 (e3 f/e/ d).e.f._g |"^VIII" (!1!g3 a/b/ c'/d'/e'/d'/ c'/b/a/g/) | %109
w: ||
w: ||
w: ||
"_cresc." (g/f/)(f'/e'/) (e'/d'/)(d'/c'/) (c'/b/)(b/a/) (a/g/)(g/f/) | %110
w: |
w: |
w: |
 !0!e>"^VIII"!1!c'!f! !fermata!c'2-!>(! (c'/d'/e'/d'/ c'>"^VII"^f!>)! | %111
w: |
w: |
w: |
 !4!a4 !2!g2) (3!fermata!z/!p!"^B_V" a/g/(3f/e/d/!D.C.! |] %112
w: |
w: |
w: |
[M:2/4]"^7. Legato (Var. VI)"[Q:1/4=60]"^b_V"!p! .[EGc] z .[EGc] z |"^III" .[ceg] z .[ceg] z | %114
w: ||
w: ||
w: ||
"^V" .[cga] z .[cfa] z |"^VII" .!4!!2![fg] z .[eg] z |"^VI" .!2!!1![Aef] z"^V" .!1!!3!!2![Gdf] z | %117
w: |||
w: |||
w: |||
"^b_V" .!3![Gde] z!f! .!3![Ace] z |"^b_VII" !2![FAd] z"^III" !3!!1!!2![DFB] z | %119
w: ||
w: ||
w: ||
"^b_V" !3![EGc]2 z2!fine! ||!p!"^IV" G/^F/G/F/ G/F/G/F/ | G/^F/G/F/ G/A/B/G/ | %122
w: |||
w: |||
w: |||
 c/B/c/d/"^V" e/d/e/^f/ |"_cresc." g/^f/g/f/ g/f/g/f/ | g/^f/g/f/ g/f/g/f/ | g/^f/g/f/ g/a/b/g/ | %126
w: ||||
w: ||||
w: ||||
!f!"^IV" c/B/c/d/"^V" e/d/e/^f/ | g/a/=f/g/ e/f/d/"^b:V"e/ |] %128
w: ||
w: ||
w: ||
[M:2/4]"^8. Accelerando (Var. V)"[Q:1/4=84]"^VII" .c2 z .c | .g2 z .g | .a2 z .a | %131
w: |||
w: |||
w: |||
"^VI" .!3!g2 z .!4!!3![eg] |[Q:1/4=92] z [ef] z [df] | z"^b_V" [de] z [ce] | %134
w: |||
w: |||
w: |||
 z"^III" !3![cd] z [Bd] | c2 z2 ||[Q:1/4=100] !4!g2 z (!4!g | !4!_g2) z (!3!f | !3!e2) z (!2!_e | %139
w: |||||
w: |||||
w: |||||
 !2!d2) z G |[Q:1/4=108] !4!g2 z (!4!g/!4!_g/) | !3!f2 z (!3!f/!3!e/) | !2!_e2 z (!2!_g/!2!=g/) | %143
w: ||||
w: ||||
w: ||||
 !1!d2 z"^V" (!2!f/!3!d/) |[Q:1/4=116] !1!c2 z"^b_V" (c/e/) | g2 z (g/e/) | a2 z (a/!4!c'/) | %147
w: ||||
w: ||||
w: ||||
 !4!g2 z"^V" (!1!e/!4!g/) | z (!4!g/!4!_g/) z"^III" (!1!d/!4!f/) | z (!4!f/!4!e/) z (!1!g/!0!e/) | %150
w: |||
w: |||
w: |||
 z"^II" (!1!_d/!1!=d/) z (!4!f/!1!d/) | z (!2!B/!2!c/) z2 |] %152
w: ||
w: ||
w: ||
[M:2/4]"^9. Allegro (Thema)"[Q:1/4=108]"^III"!mf! c2 c2 | g2 g2 | a2 a2 | g2 g2 | f2 f2 | e2 e2 | %158
w: ||||||
w: ||||||
w: ||||||
 d2 d>e | c4 ||!p! g2 g2 | f2 f2 | e2 e2 | d2 d2 | g2 g2 | f2 f2 |!<(! e2 Te>f | e2 d2!<)! || %168
w: ||||||||||
w: ||||||||||
w: ||||||||||
!mf! c2 c2 | g2 g2 | a2 a2 | g2 g2 | f2 f2 | e2 e2 | d2 Td>e | c4 |] %176
w: ||||||||
w: ||||||||
w: ||||||||
[M:2/4]"^10. Moderato (Var. IV)"[Q:1/4=72]"^I"!f! c2 c2 |"^III" g2 g2 |"^V" a4 |"^III" g4 | %180
w: ||||
w: ||||
w: ||||
 !0![ef]2"^I" [df]2 | [de]2 [ce]2 |"^III" [cd]2 [Bd]2 |"^I" [Gc]2 z2!D.C.! ||!p!"^V" g2 g2 | f4 | %186
w: ||||||
w: ||||||
w: ||||||
"^III" !0!e2- e>a | (!0!e2"^III" (3!1!d)!0!e!4!f | g2 g2 | f4 |"^III" e2- e>a | %191
w: |||||
w: |||||
w: |||||
 (!0!e2 (3!3!d)!1!fd!D.C.! |][M:2/4]"^11. Fuga Maggiore (Var. IX)"[Q:1/4=120]!p!"^V" .c2 .c2 | %193
w: ||
w: ||
w: ||
 .g2 g2- | !1!a4 |"^III" !1!g4 |"^I" !1!f4 | !0!e3 c |!f! (cB AB | c2) z2 ||!p! .g2 .g2 | .f2 .f2 | %202
w: |||||||||
w: |||||||||
w: |||||||||
 e2 e>f | e2 d2 | c2 c2- | cB AB |"^V"!<(! .cc de | .f.g .a.b!<)! |!f! .c'2!p! .c'2 | .g2 .g2 | %210
w: ||||||||
w: ||||||||
w: ||||||||
 .a2 .a2 | .g2 (e>g |"^III" .f2) d>f | .e2"^I" .c2 |!f! (cB AB | c2) z2 |] %216
w: ||||||
w: ||||||
w: ||||||
[M:4/4]"^12. Placido (Var. X)"!pp! z"^b_V"[Q:1/2=42] (!tenuto!!3!EcE) z (EGE) | %217
w: |
w: |
w: |
 z"^VII" (!1!E!4!cE) z (EcE) | z (!2!FcF) z (FcF) | z (EcE)!p! z"^b_BIII" (_B!2![eg]B) | %220
w: |||
w: |||
w: |||
 z"^b_VII" (A[d^f]A) z"^b_VI" (_A!2![d=f]A) | z"^b_V" (G[ce]G) z (!>!A!2!!1![c_e]A) | %222
w: ||
w: ||
w: ||
 z"^III" (!3!G!4!!1![cd]G) z"^b_III" (F!2![Bd]F |"^II" [Ec]4) z4!fine! || %224
w: ||
w: ||
w: ||
 z"^V" (!3!E!1!cE) z (EcE) | z"^IV" (!2!D!3!cD) z (D!1!BD) | %226
w: ||
w: ||
w: ||
 z"^III" (!1!C!3!cC) z"^IV" (!2!G!3![c_e]G) | z"^III" (!4!A!3![cd]A) z (!4!_A!2![Bd]A) | %228
w: ||
w: ||
w: ||
 z"^b_V" (G[c=e]G) z (G[^cg]G) | z"^b_VII" (A[d^f]A) z"^b_VI" (_A!2![d=f]A) | %230
w: ||
w: ||
w: ||
 z"^b_B" (G[=ce]G) z"^IV" (=A[c_e]A | %231
w: |
w: |
w: |
"^III"!>(! !2!!1![Bd]!3!c!2!B"^V"!4!A !1!G!4!F!3!E!1!D)!>)!!D.C.! |] %232
w: |
w: |
w: |
[M:3/4]"^13. Finale (Var. XII)"[Q:1/4=72]"^b_V"!f! !3![EGc]2 z2"^IV" (T!2!c3/2!1!B/4"^V"!1!c/4 | %233
w: |
w: |
w: |
 !4!g2) z2"^IV" (Tc3/2B/4"^b_V"c/4 |"^b_V" !4![cga]2 !2![cfa]2 [cfa]2 | %235
w: ||
w: ||
w: ||
"^VII" !3!!2![eg]2) z2 (T!2!g3/2^f/4g/4 | ^f2) z2"^V" (T!2!=f3/2e/4f/4 | %237
w: ||
w: ||
w: ||
 e2) z2"^IV" (T!2!c3/2B/4c/4 | !4!d2 !3!f2)"^III" (!3!!1!!2![DFB]2!dacoda! || %239
w: ||
w: ||
w: ||
"^b_V" !3![EGc]2) z2 z2 ||"^X"!p! !1!a/!3!g/!2!^f/g/ f/g/f/g/ f/g/f/g/ | %241
w: ||
w: ||
w: ||
"^VIII" !1!g/!3!=f/!2!e/f/ e/f/e/f/ e/f/e/f/ |"^(VIII)" !3!f/!2!e/!1!^d/e/ d/e/d/e/ d/e/d/e/ | %243
w: ||
w: ||
w: ||
"^V" !4!e/!2!d/!1!^c/d/ c/d/c/d/ c/d/c/d/ |"^X" !1!a/!3!g/!2!^f/g/ f/g/f/g/ !4!e'/g/e'/g/ | %245
w: ||
w: ||
w: ||
"^VIII" !1!g/!3!=f/!2!e/f/ e/f/e/f/ !4!d'/f/d'/f/ | %246
w: |
w: |
w: |
"^(VIII)" !3!f/!2!e/^d/e/ d/e/d/e/ !1!c'/e/c'/e/ | %247
w: |
w: |
w: |
"^VI" !4!e/!2!=d/!1!^c/d/ c/d/c/d/ !3!g/!4!B/g/B/!D.C.! |]O [EGc]2 z2"^VII" (T!2!g3/2^f/4g/4 | %249
w: | * * *|
w: | * * *|
w: | * * *|
 ^f2) z2"^V" (T!2!=f3/2e/4f/4 | e2) z2"^IV" (T!2!c3/2B/4c/4 | d2) z2"^VIII" (!3!!1!!2![DFB]2 | %252
w: |||
w: |||
w: |||
 !4!c/)!3!G/"^VII"!1!A/B/ c/d/e/f/ g/a/b/!2!c'/ | !1!g/!4!a/!4!f/!1!g/ e/f/d/e/ c/d/B/d/ | %254
w: ||
w: ||
w: ||
 !4!c/!p!!3!G/!1!A/B/ c/d/e/f/ g/a/b/c'/ | g/a/f/g/ e/f/d/e/ c/d/B/d/ | %256
w: ||
w: ||
w: ||
 c2 z/"_cresc." C/B,/C/ z/"^VI" E/_E/=E/ | z/"^VIII" G/^F/G/ z/"^VI" E/^D/E/ z/"^VII" G/F/G/ | %258
w: ||
w: ||
w: ||
 z/ c/B/c/ z/ e/^d/e/ z/"^b_VII" g/^f/"^b:VIII"g/ |!ff! [cegc']4 z2 |] %260
w: ||
w: ||
w: ||
V:2
 x4 | x4 | x4 | x4 | x4 | x4 | x4 | x4 |] x4 | x4 | x4 | x4 | x4 | x4 | x4 | !0!G4 |][M:2/4] x4 | %17
 x4 | x4 | x4 | x4 | x4 | x4 | x4 |] x4 | x4 | x4 | x4 | x4 | x4 | x4 | x4 |][K:Eb][M:2/4] x4 | %33
 x4 | x4 | x4 | !0!G4 | !0!G2 z2 | x4 | x4 || !3!G4 | (!3!=A2 !1!=B2 | c) G AG | x2 =F2 | x2 _E2 | %45
 x2 A2 | G4 | G4 || x4 | x4 | x4 | x4 | !0!G4 | !0!G2 x2 | x4 | x4 |[K:C][M:2/4] x4 | x4 | x4 | %59
 x4 | x4 | x4 | x4 | x4 |] x4 | x4 | x4 | x4 | x4 | x4 | x4 | x4 |][M:2/4] x4 | x2 !1!c2- | %74
 c2 !4!f2- | f2 !3!!4![ce]2- | [ce]2 !0!!4![Gd]2- | [Gd]2 !2!!1![Ac]2- | [Ac]2 !0!G>!3!F | E2 x2 || %80
 x4 | x4 | x4 | x4 | x4 | x4 | x4 | G4 || E2 x2 | x4 | g2 !2!f2 | !3!!4![cf]2 !3!!4![_Be]2 | %92
 !1!!3![Ae]2 !1!!4![_Ad]2 | !1!!4![Gd]2 !4!!1![=Ac]2 | !4!!3![Ac]2 !0!G>!3!G | x4 |][M:4/4] x8 | %97
 x8 | x8 | x8 | x8 | x8 | x8 | x8 |] x8 | x8 | x8 | x8 | x8 | x8 | x8 | x8 |][M:2/4] x4 | x4 | x4 | %115
 x4 | x4 | x4 | x4 | x4 || x4 | x4 | x4 | x4 | x4 | x4 | x4 | x4 |][M:2/4] x4 | x4 | x4 | x4 | x4 | %133
 x4 | x4 | x4 || x4 | x4 | x4 | x4 | x4 | x4 | x4 | x4 | x4 | x4 | x4 | x4 | x4 | x4 | x4 | x4 |] %152
[M:2/4] x4 | x4 | x4 | x4 | x4 | x4 | x4 | x4 || x4 | x4 | x4 | x4 | x4 | x4 | x4 | G4 || x4 | x4 | %170
 x4 | x4 | x4 | x4 | x4 | x4 |][M:2/4] [EG]2 x2 | [ce]2 x2 | c4 | c4 | c2 G2 | G2 A2 | A2 F2 | %183
 E2 x2 || !0!e2 e2 | (!0!e2 d2) | (d2 !3!c2) | (c2 !2!B2) | e2 e2 | (e2"_cresc." d2) | (d2 c2) | %191
 (c2 !4!B2) |][M:2/4] x4 | x4 | g2 !4!f2- | f2 !4!e2- | e2 !4!d2- | d2 c z | D2 F2 | E2 x2 || x4 | %201
 x4 | x4 | x4 | G4 | G4 | G4 | G2 z2 | x4 | x4 | f2 f2 | c2 c2 | B2 B2 | c2 [EG]2 | D2 F2 | %215
 [EG]2 z2 |][M:4/4] x8 | x8 | x8 | x8 | x8 | x8 | x8 | x8 || x8 | x8 | x8 | x8 | x8 | x8 | x8 | %231
 x8 |][M:3/4] x6 | x6 | x6 | x6 | x6 | x6 | x6 || x6 || x6 | x6 | x6 | x6 | x6 | x6 | x6 | x6 |] %248
 x6 | x6 | x6 | x6 | x6 | x6 | x6 | x6 | x6 | x6 | x6 | x6 |] %260
V:3
 x4 | x4 | x4 | x4 | x4 | x4 | x4 | x4 |] x4 | x4 | x4 | x4 | x4 | x4 | x4 | x4 |][M:2/4] x4 | x4 | %18
 x4 | x4 | x4 | x4 | x4 | x4 |] x4 | x4 | x4 | x4 | x4 | x4 | x4 | x4 |][K:Eb][M:2/4] x4 | x4 | %34
 x4 | x4 | x4 | x4 | x4 | x4 || x4 | x4 | x4 | x4 | x4 | x4 | x4 | x4 || x4 | x4 | x4 | x4 | x4 | %53
 x4 | x4 | x4 |[K:C][M:2/4] x4 | x4 | x4 | x4 | x4 | x4 | x4 | x4 |] x4 | x4 | x4 | x4 | x4 | x4 | %70
 x4 | x4 |][M:2/4] x4 | x4 | x4 | x4 | x4 | x4 | x4 | x4 || x4 | x4 | x4 | x4 | x4 | x4 | x4 | %87
 x4 || x4 | x4 | x4 | x4 | x4 | x4 | x4 | x4 |][M:4/4] x8 | x8 | x8 | x8 | x8 | x8 | x8 | x8 |] %104
 x8 | x8 | x8 | x8 | x8 | x8 | x8 | x8 |][M:2/4] x4 | x4 | x4 | x4 | x4 | x4 | x4 | x4 || x4 | x4 | %122
 x4 | x4 | x4 | x4 | x4 | x4 |][M:2/4] x4 | x4 | x4 | x4 | x4 | x4 | x4 | x4 || x4 | x4 | x4 | x4 | %140
 x4 | x4 | x4 | x4 | x4 | x4 | x4 | x4 | x4 | x4 | x4 | x4 |][M:2/4] x4 | x4 | x4 | x4 | x4 | x4 | %158
 x4 | x4 || x4 | x4 | x4 | x4 | x4 | x4 | x4 | x4 || x4 | x4 | x4 | x4 | x4 | x4 | x4 | x4 |] %176
[M:2/4] x4 | x4 | (g2 f2) | (f2 f2) | x4 | x4 | x4 | x4 || x4 | x4 | x4 | x4 | x4 | x4 | x2 c2 | %191
 x4 |][M:2/4] x4 | x4 | x4 | x4 | x4 | x4 | x4 | x4 || x4 | x4 | x4 | x4 | x4 | x4 | x4 | x4 | x4 | %209
 x4 | x4 | x4 | x4 | x4 | x4 | x4 |][M:4/4] x8 | x8 | x8 | x8 | x8 | x8 | x8 | x8 || x8 | x8 | x8 | %227
 x8 | x8 | x8 | x8 | x8 |][M:3/4] x6 | x6 | x6 | x6 | x6 | x6 | x6 || x6 || x6 | x6 | x6 | x6 | %244
 x6 | x6 | x6 | x6 |] x6 | x6 | x6 | x6 | x6 | x6 | x6 | x6 | x6 | x6 | x6 | x6 |] %260
V:4
 (!2!E2 !3!C2 | E2 C2 | F2 C2 | [CE]2) z z/"^II" ^C/ | !4!D2 z3/2 !1!B,/ | !2!=C2 z3/2"^I" A,/ | %6
 F,2 G,2 | C4 |]"^II" (!1!E2 !2!G,2) | (D2 G,2) | (C2 G,2) | (F2 G,2) | E4 | D4 | !3!C2 z3/2 C/ | %15
 !2!E>!3!C !1!B,2 |][M:2/4]"^b_III" G,2 C2 |"^VII" (!1!E2 C2) | (F2 C2) | E2 !2!!4![Cc]2 | %20
 !1!!4![A,A]2 [B,B]2 | [^G,^G]2 [A,A]2 | [F,F]2 [=G,=G]2 |"^II" !2!!1![CEG]2 z2 |] %24
"^(II)" !2![G,E]4 | [G,D]4 | [G,C]4 | [G,B,]4 | [G,E]4 | [G,D]4 | [G,C]4 | [G,B,]4 |] %32
[K:Eb][M:2/4] z4 | z4 |"^III" FG AB | c2 c2 | G,=A, =B,"^b_III"G, | CG, !2!_A,!4!E | F!3!D !4!GG, | %39
 C4 ||"^II" !2!G,4 | G,4 | G,4 | (=A,2 =B,2 | (!3!C) !2!G, A,G, | ^F,2)"^I" =F2 | =E2 _E2 | %47
 D2 !3!G,2 || C2 z2 | z4 | FG AB | =B.c B.c | G,=A, =B,"^b_II"G, | CG, _A,E | FD GG, | C4 | %56
[K:C][M:2/4]"^I" !0!E,2 !3!C2 | c4 | c4 | c4 | c2"^III" d2 | e2"^I" c2 | A2 [GB]2 | [CEGc]4 |] %64
"^II" !1!E2 !3!C2 | !0!D2 !1!B,2 | C2 E2 | !4!F4 | E2 !4!^C2 | D2 B,2 | =C2"^b:II" C2 | %71
 E>!3!C B,2 |][M:2/4]!f! !3!C/c/B/c/ d/c/B/c/ | !2!E/c/B/c/ d/c/B/c/ | !3!F/c/B/c/ d/c/B/c/ | %75
 !3!C/c/B/c/ d/c/B/c/ | A,/!3!A/^G/A/"^II" B,/B/^A/B/ |"^III" C/c/B/c/"^I" A,/A/^G/A/ | %78
 F,/F/E/F/"^III" G,/G/^F/G/ | C2 C2 ||"^I"!mf! G,/E/^D/E/ F/E/D/E/ | G,/=D/^C/D/ E/D/C/D/ | %82
 G,/G/^F/G/ A/G/F/G/ | G,/=F/E/F/ G/F/E/F/ | G,/E/^D/E/ F/E/D/E/ | G,/=D/^C/D/ E/D/C/D/ | %86
 G,/C/B,/C/ D/C/B,/C/ | G,/B,/^A,/B,/ C/B,/A,/"^(I)"B,/ ||!f! C/c/B/c/ d/c/B/c/ | %89
 E/c/B/c/ d/c/B/c/ | F/c/B/c/ d/c/B/c/ | !1!C/!3!c/!2!B/c/ ^C/^c/^B/c/ | D/d/^c/d/ B,/B/^A/B/ | %93
 C/=c/B/c/ A,/A/^G/A/ | F,/F/E/F/ G,/G/^F/G/ | !1!C4 |][M:4/4] z8 |"^II" !3!C3 !2!G, !1!E3 C | %98
 !5!F3 C !1!A3 F | C3 G, E3 C |"^I" !0!!4![A,F]2 z2 !2![B,DG]2 z2 | [CEG]2 z2 [EGc]2 z2 | %102
 D4 !2!E2 D2 | C2 G,2 C2 z2 |] !2!G,!3!!1![CE][CE][CE] G,[CE][CE][CE] | %105
"^b_III" !1!G,!4![DF][DF][DF] G,[DF][DF][DF] | !2!!0![EG]3 !1![B,G] !3![CG]3 !1!!0![F,D] | %107
 (!3!!4![G,C]4 !2![G,B,]2) z2 |"^II" !2!G,!1![EG][EG][EG] G,[EG][EG][EG] | %109
 !1!G,!4!!1![DF][DF][DF] !2!G,!1![B,D][B,D][B,D] | !3!!1![CE]2 !3!!1!!2![A,C^F]4 z2 | %111
 !2!!3![G,-C]4 !1![G,B,]2 !fermata!z2 |][M:2/4]!f! C/B,/C/B,/ C/B,/C/B,/ | C/B,/C/B,/ C/D/E/C/ | %114
 F/E/F/E/ F/G/A/B/ | c/B/c/B/ c/d/e/c/ | d/^c/d/=c/ B/A/B/G/ | c/B/c/B/ A/^G/A/=G/ | %118
 F/E/F/D/ G/^F/G/!3!G,/ | !4!C/G,/E,/G,/ C2 ||!p!"^II" [G,E]2 [G,E]2 |"^b_III" [G,DF]2 [G,DF]2 | %122
"^II" [G,CE]2 [G,CE]2 | [G,B,D]2 [G,B,D]2 | [G,EG]2 [G,EG]2 |"^III" [G,DF]2 [G,DF]2 | %126
"^II" [G,CE]2 [G,CE]2 | [G,B,D]2 z2 |][M:2/4] z"^II" .!2!C .E2 | z .E .C2 | z .!3!F .C2 | z E C2 | %132
 !4!D z !1!B, z | !2!C z !4!A, z |"^I" !1!F, z !3!G, z | z"^III" !4!G !1!C2 || z"^II" !1!E !2!G,2 | %137
 z !4!D G,2 | z !3!C G,2 | z !1!B, G,2 | z E G,2 | z D G,2 | z C G,2 | z B, G,2 | %144
 z"^II" !0!E,/!2!G,/ !3!C2 | z !3!C/!1!E/ !0!G2 | z !3!F/!1!A/ !2!C2 | z !1!E/!0!G/ !2!C2 | %148
 !4!D z !1!B, z | !2!C z"^I" !0!E, z | !1!F, z !3!G, z |"^B_VIII" !1!C z c' z |] %152
[M:2/4] !2!E2 !3!C2 | E2 C2 | F2 C2 | E2 C2 | D2 B,2 | C2 A,2 | !1!F,2 !3!G,2 | !4!C4 || %160
 !2!E2 !3!G,2 | D2 G,2 | C2 G,2 | B,2 G,2 | E2 G,2 | D2 G,2 | C2 C>D | (C2 B,2) || !2!E2 !3!C2 | %169
 E2 C2 | F2 C2 | E2 C2 | D2 B,2 | C2 A,2 | !1!F,2 !3!G,2 | !4!C4 |][M:2/4] (3CEG (3cec | %177
 (3CEG (3cec | (3CFA (3cfc | (3CEG (3cec |"^V" (3.A,(^GA)"^VII" (3.B,(^AB) | %181
"^VIII" (3C(Bc)"^V" (3.=A,(^GA) |"^I" (3.F,(EF)"^III" (3.=G,(^FG) |"^I" (3CEG c2 || (3G,CE (3Gce | %185
 (3g^fg (3GAB | (3cBc (3CE=F | (3G^FG G,2 | (3G,CE (3Gce | (3g^fg (3GAB | (3cBc (3CE=F | %191
 (3G^FG G,2 |][M:2/4] z4 | z4 |"^III" .F2 .F2 | .c2 .c2 | .G2 .G2 | .C2 .C2 | .G,2 .G,2 | C2 z2 || %200
 z4 | z4 |"^III" .[Gc]2 .[Gc]2 | .[FB]2 .[FB]2 |"^V" .[EG]2 .[EG]2 |"^III" .[DF]2 .[DF]2 | %206
"^II" .[G,E]2 .[G,E]2 |"^I" .[F,D]2 .[F,D]2 | .[E,C]2 z2 | z4 | z4 | z4 |"^b_III" .G2 .G2 | %213
 .C2 .C2 | .G,2 .G,2 | C2 z2 |][M:4/4]"^III" C4 (c4 | g4 g4 | a4 a4 | g4) (!2!^C4 |"^II" D4 B,4 | %221
 =C4) (^F,4 | G,4) (!2!G,4 | !4!G4) !2!C4 || G,4"^I" (g4 | ^f4 =f4 | e4) (G,4 | ^F,4 =F,4 | %228
 E,4)"^III" (_E4 | D4"^II" !1!B,4 | C4 ^F,4 | G,4) z4 |] %232
[M:3/4]"^I" !3!G,/!4!C/B,/C/ D/C/B,/C/ D/C/B,/C/ | !0!E,/!3!C/B,/C/ D/C/B,/C/ D/C/B,/C/ | %234
 !1!F,/!3!C/B,/C/ D/C/B,/C/ D/C/B,/C/ | %235
"^III" !1!C/!4!c/!3!B/c/ !2!d/c/B/c/"^IV" !1!^C/!4!^c/!3!^B/c/ | %236
"^V" !1!D/!4!d/!3!^c/d/ !2!e/d/c/d/"^II" !1!B,/!4!B/!3!^A/B/ | %237
"^III" !1!C/!4!c/!3!B/c/ !2!d/c/B/c/"^I" !0!A,/!3!A/!2!^G/A/ | %238
 !1!F,/!3!F/!2!E/F/ !0!=G/F/E/F/"^III" !1!G,/!3!G/!2!^F/G/ || %239
 !1!C/!0!D/"^I"!2!E/!3!F/ G/A/B/c/ C2 ||"^(I)" !3!G,/!2!E/!1!^D/E/ D/E/D/E/ D/E/D/E/ | %241
"^III" !1!G,/!3!=D/!2!^C/D/ C/D/C/D/ C/D/C/D/ |"^II" !2!G,/!3!=C/!1!B,/C/ B,/C/B,/C/ B,/C/B,/C/ | %243
"^(II)" !2!G,/!3!F/!1!E/F/ E/F/E/F/ E/F/E/F/ |"^I" !3!G,/E/^D/E/ D/E/D/E/ G,/E/G,/E/ | %245
"^III" !1!G,/=D/^C/D/ C/D/C/D/ G,/D/G,/D/ |"^II" !2!G,/=C/B,/C/ B,/C/B,/C/ G,/C/G,/C/ | %247
"^(II)" !2!G,/F/E/F/ E/F/E/F/ G,/F/G,/F/ |] %248
"^I" !0!E,/!2!E/!1!^D/E/ !3!F/E/D/E/ !1!D/!4!_e/!3!d/e/ | %249
 !0!D/"^II"!2!d/!1!^c/d/ !4!=e/d/c/d/ B,/B/^A/B/ | %250
"^III" !1!=C/!4!=c/!3!B/c/ !2!d/c/B/c/"^I" !0!A,/!3!A/!2!^G/A/ | %251
 !1!F,/!3!F/!2!E/F/ !0!=G/F/E/F/"^III" !1!G,/!3!G/!2!^F/G/ |"^II" !2!!1![CE]2 z2 z2 | %253
 (!1!E!0!D!3!C!4!FED | E2) z2 z2 | (EDCFED | [CE]2) E,2 E,2 | G,2 E,2 !2!G,2 | %258
"^I" !3!C2 [E,E]2 [G,G]2 | [CEGc]4 z2 |] %260
V:5
 x4 | x4 | x4 | x4 | x4 | x4 | x4 | x4 |] x4 | x4 | x4 | x4 | G,4 | G,4 | !2!G,2 x2 | x4 |] %16
[M:2/4] x4 | x4 | x4 | x4 | x4 | x4 | x4 | x4 |] x4 | x4 | x4 | x4 | x4 | x4 | x4 | x4 |] %32
[K:Eb][M:2/4] x4 | x4 | x4 | x4 | x4 | x4 | x4 | x4 || x4 | x4 | x4 | x4 | x4 | x4 | x4 | x4 || %48
 x4 | x4 | x4 | x4 | x4 | x4 | x4 | x4 |[K:C][M:2/4] x4 | !2!E2 C2 | !4!F2 C2 | E2 C2 | A2 B2 | %61
 c2 A2 | F2 F2 | x4 |] !2!G,4 | G,4 | G,4 | G,4 | G,4 | G,4 | G,2 ^F,2 | !2!G,4 |][M:2/4] C4 | E4 | %74
 F4 | C4 | A,2 B,2 | C2 A,2 | F,2 G,2 | x4 || G,4 | G,4 | G,4 | G,4 | G,4 | G,4 | G,4 | G,4 || C4 | %89
 E4 | F4 | C2 ^C2 | D2 B,2 | C2 A,2 | F,2 G,2 | x4 |][M:4/4] x8 | x8 | x8 | x8 | x8 | x8 | %102
 !1!F,4 !3!G,4 | x8 |] x8 | x8 | x8 | x8 | x8 | x8 | x8 | x8 |][M:2/4] x4 | x4 | x4 | x4 | x4 | %117
 x4 | x4 | x4 || x4 | x4 | x4 | x4 | x4 | x4 | x4 | x4 |][M:2/4] x4 | x4 | x4 | x4 | x4 | x4 | x4 | %135
 x4 || x4 | x4 | x4 | x4 | x4 | x4 | x4 | x4 | x4 | x4 | x4 | x4 | x4 | x4 | x4 | x4 |][M:2/4] x4 | %153
 x4 | x4 | x4 | x4 | x4 | x4 | x4 || x4 | x4 | x4 | x4 | x4 | x4 | x4 | x4 || x4 | x4 | x4 | x4 | %172
 x4 | x4 | x4 | x4 |][M:2/4] x4 | x4 | x4 | x4 | x4 | x4 | x4 | x4 || x4 | x4 | x4 | x4 | x4 | x4 | %190
 x4 | x4 |][M:2/4] x4 | x4 | x4 | x4 | x4 | x4 | x4 | x4 || x4 | x4 | x4 | x4 | x4 | x4 | x4 | x4 | %208
 x4 | x4 | x4 | x4 | x4 | x4 | x4 | x4 |][M:4/4] x8 | x8 | x8 | x8 | x8 | x8 | x8 | x8 || x8 | x8 | %226
 x8 | x8 | x8 | x8 | x8 | x8 |][M:3/4] x6 | x6 | x6 | x6 | x6 | x6 | x6 || x6 || x6 | x6 | x6 | %243
 x6 | x6 | x6 | x6 | x6 |] x6 | x6 | x6 | x6 | x6 | !2!G,6 | C2 x4 | G,6 | x6 | x6 | x6 | x6 |] %260

